public/img/contact/phone.svg

<svg width="48" height="48" viewBox="0 0 48 48" fill="none" xmlns="http://www.w3.org/2000/svg">
<rect x="1" y="1" width="46" height="46" rx="23" fill="white"/>
<rect x="1" y="1" width="46" height="46" rx="23" stroke="#303A4D" stroke-width="2"/>
<g clip-path="url(#clip0_182_184)">
<path d="M34.7347 29.8333C33.7383 28.837 32.7446 27.8406 31.7483 26.847C30.9582 26.0167 29.9216 26.0167 29.0913 26.847C28.4699 27.4683 27.8459 28.0897 27.2245 28.7138C27.0584 28.8798 26.9325 28.8798 26.7263 28.7968C26.3514 28.5477 25.896 28.3817 25.521 28.1326C23.7373 27.013 22.2025 25.5587 20.874 23.8981C20.2098 23.0678 19.6286 22.1973 19.2134 21.2009C19.1304 20.9947 19.1304 20.8688 19.2965 20.7028C19.9607 20.1215 20.5419 19.5002 21.1633 18.9591C22.0365 18.0886 22.0365 17.0923 21.1633 16.2218C20.6249 15.6808 20.167 15.2255 19.6715 14.7273C19.1304 14.1889 18.6322 13.6907 18.1341 13.1926C17.3466 12.4024 16.3074 12.4024 15.4798 13.1926C14.8557 13.8139 14.2344 14.4353 13.6103 15.0594C13.0291 15.6406 12.7398 16.345 12.6568 17.1351C12.5737 18.4208 12.863 19.6662 13.321 20.8688C14.2344 23.3999 15.6458 25.5587 17.3466 27.5915C19.6286 30.3315 22.4088 32.5305 25.6041 34.0679C27.0584 34.7321 28.553 35.3133 30.1278 35.3964C31.2903 35.4365 32.2465 35.1473 33.0339 34.2741C33.5723 33.6929 34.1963 33.1546 34.7347 32.5733C35.565 31.7002 35.565 30.6637 34.7347 29.8333Z" fill="#303A4D"/>
</g>
<defs>
<clipPath id="clip0_182_184">
<rect width="24" height="24" fill="white" transform="translate(12 12)"/>
</clipPath>
</defs>
</svg>

<svg width="48" height="48" fill="none" xmlns="http://www.w3.org/2000/svg"><rect x="1" y="1" width="46" height="46" rx="23" fill="#fff"/><rect x="1" y="1" width="46" height="46" rx="23" stroke="#303A4D" stroke-width="2"/><g clip-path="url(#a)"><path d="M34.735 29.833c-.997-.996-1.99-1.992-2.987-2.986-.79-.83-1.826-.83-2.657 0-.621.621-1.245 1.243-1.867 1.867-.166.166-.291.166-.498.083-.375-.25-.83-.415-1.205-.664-1.784-1.12-3.319-2.574-4.647-4.235-.664-.83-1.245-1.7-1.66-2.697-.084-.206-.084-.332.083-.498.664-.581 1.245-1.203 1.866-1.744.873-.87.873-1.867 0-2.737-.538-.541-.996-.997-1.491-1.495-.542-.538-1.04-1.036-1.538-1.534-.787-.79-1.827-.79-2.654 0-.624.62-1.246 1.242-1.87 1.866-.58.582-.87 1.286-.953 2.076-.083 1.286.206 2.531.664 3.734.913 2.53 2.325 4.69 4.026 6.723 2.282 2.74 5.062 4.939 8.257 6.476 1.454.664 2.949 1.245 4.524 1.328 1.162.04 2.118-.249 2.906-1.122.538-.581 1.162-1.12 1.7-1.7.831-.874.831-1.91 0-2.74z" fill="#303A4D"/></g><defs><clipPath id="a"><path fill="#fff" transform="translate(12 12)" d="M0 0h24v24H0z"/></clipPath></defs></svg>
